public/assets/quote.svg

<!DOCTYPE svg PUBLIC "-//W3C//DTD SVG 1.1//EN" "http://www.w3.org/Graphics/SVG/1.1/DTD/svg11.dtd">
<!-- Uploaded to: SVG Repo, www.svgrepo.com, Transformed by: SVG Repo Mixer Tools -->
<svg width="800px" height="800px" viewBox="0 0 24 24" fill="none" xmlns="http://www.w3.org/2000/svg">
<g id="SVGRepo_bgCarrier" stroke-width="0"/>
<g id="SVGRepo_tracerCarrier" stroke-linecap="round" stroke-linejoin="round"/>
<g id="SVGRepo_iconCarrier"> <path d="M14 15V14C14 13.0681 14 12.6022 14.1522 12.2346C14.3552 11.7446 14.7446 11.3552 15.2346 11.1522C15.6022 11 16.0681 11 17 11H17.5C18.9045 11 19.6067 11 20.1111 11.3371C20.3295 11.483 20.517 11.6705 20.6629 11.8889C21 12.3933 21 13.0955 21 14.5V15.3431C21 16.1606 21 16.5694 20.8478 16.9369C20.6955 17.3045 20.4065 17.5935 19.8284 18.1716L19.2396 18.7604C18.7822 19.2178 18 18.8938 18 18.2469V17.8787C18 17.3934 17.6066 17 17.1213 17H16C14.8954 17 14 16.1046 14 15Z" stroke="#94C46F" stroke-width="2" stroke-linejoin="round"/> <path d="M3 9V8C3 7.06812 3 6.60218 3.15224 6.23463C3.35523 5.74458 3.74458 5.35523 4.23463 5.15224C4.60218 5 5.06812 5 6 5H6.5C7.90446 5 8.60669 5 9.11114 5.33706C9.32952 5.48298 9.51702 5.67048 9.66294 5.88886C10 6.39331 10 7.09554 10 8.5V9.34315C10 10.1606 10 10.5694 9.84776 10.9369C9.69552 11.3045 9.40649 11.5935 8.82843 12.1716L8.23965 12.7604C7.78219 13.2178 7 12.8938 7 12.2469V11.8787C7 11.3934 6.6066 11 6.12132 11H5C3.89543 11 3 10.1046 3 9Z" stroke="#94C46F" stroke-width="2" stroke-linejoin="round"/> </g>
</svg>

<svg viewBox="0 0 24 24" fill="none" xmlns="http://www.w3.org/2000/svg">
  <g stroke-width="0"/>
  <g stroke-linecap="round" stroke-linejoin="round"/>
  <path d="M14 15v-1c0-.932 0-1.398.152-1.765a2 2 0 0 1 1.083-1.083C15.602 11 16.068 11 17 11h.5c1.404 0 2.107 0 2.611.337.218.146.406.334.552.552.337.504.337 1.207.337 2.611v.843c0 .818 0 1.226-.152 1.594-.152.367-.441.656-1.02 1.235l-.588.588a.726.726 0 0 1-1.24-.513v-.368a.88.88 0 0 0-.879-.879H16a2 2 0 0 1-2-2ZM3 9V8c0-.932 0-1.398.152-1.765a2 2 0 0 1 1.083-1.083C4.602 5 5.068 5 6 5h.5c1.404 0 2.107 0 2.611.337a2 2 0 0 1 .552.552C10 6.393 10 7.096 10 8.5v.843c0 .818 0 1.226-.152 1.594s-.442.657-1.02 1.235l-.588.588A.726.726 0 0 1 7 12.247v-.368A.88.88 0 0 0 6.121 11H5a2 2 0 0 1-2-2Z" stroke="#84C666" stroke-width="1.2" stroke-linejoin="round"/>
</svg>
